X: 39677
T: Tenpenny Bit, The
R: jig
M: 6/8
K: Adorian
g|edB G2A|Bed Bcd|edB G2A|BAB gfg|
edB G2A|Bed Bcd|eag edB|1 BAG A2:|2 BAG A||
Bd|e2f gfg|eaa ged|e2 f gfg|efg a2 a|
aba age|ged Bcd|eag edB|1 BAG A:|2 BAG A2||

